media/ico/ico_info.svg

<svg width="96" height="96" viewBox="0 0 96 96" fill="none" xmlns="http://www.w3.org/2000/svg">
<path d="M48 8C25.956 8 8 25.956 8 48C8 70.044 25.956 88 48 88C70.044 88 88 70.044 88 48C88 25.956 70.044 8 48 8ZM48 16C65.7205 16 80 30.2795 80 48C80 65.7205 65.7205 80 48 80C30.2795 80 16 65.7205 16 48C16 30.2795 30.2795 16 48 16ZM44 28V36H52V28H44ZM44 44V68H52V44H44Z" fill="#4F4AFF"/>
</svg>

<?xml version="1.0" encoding="utf-8"?>
<!-- Generator: Adobe Illustrator 28.0.0, SVG Export Plug-In . SVG Version: 6.00 Build 0)  -->
<svg version="1.1" id="Layer_1" xmlns="http://www.w3.org/2000/svg" xmlns:xlink="http://www.w3.org/1999/xlink" x="0px" y="0px"
	 viewBox="0 0 96 96" style="enable-background:new 0 0 96 96;" xml:space="preserve">
<style type="text/css">
	.st0{fill:#B3B3B3;}
</style>
<path class="st0" d="M48,8C26,8,8,26,8,48s18,40,40,40s40-18,40-40S70,8,48,8z M48,16c17.7,0,32,14.3,32,32S65.7,80,48,80
	S16,65.7,16,48S30.3,16,48,16z M44,28v8h8v-8H44z M44,44v24h8V44H44z"/>
</svg>
